img/icons/icon-text.svg

<svg width="113" height="16" viewBox="0 0 113 16" fill="none" xmlns="http://www.w3.org/2000/svg">
<path d="M0.28125 12V0.546875H1.79688V5.25H7.75V0.546875H9.26562V12H7.75V6.60156H1.79688V12H0.28125ZM14.7109 12V1.89844H10.9375V0.546875H20.0156V1.89844H16.2266V12H14.7109ZM21.5312 12V0.546875H23.8125L26.5234 8.65625C26.7734 9.41146 26.9557 9.97656 27.0703 10.3516C27.2005 9.9349 27.4036 9.32292 27.6797 8.51562L30.4219 0.546875H32.4609V12H31V2.41406L27.6719 12H26.3047L22.9922 2.25V12H21.5312ZM34.8438 12V0.546875H36.3594V10.6484H42V12H34.8438ZM45.5234 12L49.9219 0.546875H51.5547L56.2422 12H54.5156L53.1797 8.53125H48.3906L47.1328 12H45.5234ZM48.8281 7.29688H52.7109L51.5156 4.125C51.151 3.16146 50.8802 2.36979 50.7031 1.75C50.5573 2.48438 50.3516 3.21354 50.0859 3.9375L48.8281 7.29688ZM62.6875 8.96094L64.0703 9.14062C63.9193 10.0938 63.5312 10.8411 62.9062 11.3828C62.2865 11.9193 61.5234 12.1875 60.6172 12.1875C59.4818 12.1875 58.5677 11.8177 57.875 11.0781C57.1875 10.3333 56.8438 9.26823 56.8438 7.88281C56.8438 6.98698 56.9922 6.20312 57.2891 5.53125C57.5859 4.85938 58.0365 4.35677 58.6406 4.02344C59.25 3.6849 59.9115 3.51562 60.625 3.51562C61.526 3.51562 62.263 3.74479 62.8359 4.20312C63.4089 4.65625 63.776 5.30208 63.9375 6.14062L62.5703 6.35156C62.4401 5.79427 62.2083 5.375 61.875 5.09375C61.5469 4.8125 61.1484 4.67188 60.6797 4.67188C59.9714 4.67188 59.3958 4.92708 58.9531 5.4375C58.5104 5.94271 58.2891 6.74479 58.2891 7.84375C58.2891 8.95833 58.5026 9.76823 58.9297 10.2734C59.3568 10.7786 59.9141 11.0312 60.6016 11.0312C61.1536 11.0312 61.6146 10.862 61.9844 10.5234C62.3542 10.1849 62.5885 9.66406 62.6875 8.96094ZM70.6875 10.9766C70.1667 11.4193 69.6641 11.7318 69.1797 11.9141C68.7005 12.0964 68.1849 12.1875 67.6328 12.1875C66.7214 12.1875 66.0208 11.9661 65.5312 11.5234C65.0417 11.0755 64.7969 10.5052 64.7969 9.8125C64.7969 9.40625 64.888 9.03646 65.0703 8.70312C65.2578 8.36458 65.5 8.09375 65.7969 7.89062C66.099 7.6875 66.4375 7.53385 66.8125 7.42969C67.0885 7.35677 67.5052 7.28646 68.0625 7.21875C69.1979 7.08333 70.0339 6.92188 70.5703 6.73438C70.5755 6.54167 70.5781 6.41927 70.5781 6.36719C70.5781 5.79427 70.4453 5.39062 70.1797 5.15625C69.8203 4.83854 69.2865 4.67969 68.5781 4.67969C67.9167 4.67969 67.4271 4.79688 67.1094 5.03125C66.7969 5.26042 66.5651 5.66927 66.4141 6.25781L65.0391 6.07031C65.1641 5.48177 65.3698 5.00781 65.6562 4.64844C65.9427 4.28385 66.3568 4.00521 66.8984 3.8125C67.4401 3.61458 68.0677 3.51562 68.7812 3.51562C69.4896 3.51562 70.0651 3.59896 70.5078 3.76562C70.9505 3.93229 71.276 4.14323 71.4844 4.39844C71.6927 4.64844 71.8385 4.96615 71.9219 5.35156C71.9688 5.59115 71.9922 6.02344 71.9922 6.64844V8.52344C71.9922 9.83073 72.0208 10.6589 72.0781 11.0078C72.1406 11.3516 72.2604 11.6823 72.4375 12H70.9688C70.8229 11.7083 70.7292 11.3672 70.6875 10.9766ZM70.5703 7.83594C70.0599 8.04427 69.2943 8.22135 68.2734 8.36719C67.6953 8.45052 67.2865 8.54427 67.0469 8.64844C66.8073 8.7526 66.6224 8.90625 66.4922 9.10938C66.362 9.30729 66.2969 9.52865 66.2969 9.77344C66.2969 10.1484 66.4375 10.4609 66.7188 10.7109C67.0052 10.9609 67.4219 11.0859 67.9688 11.0859C68.5104 11.0859 68.9922 10.9688 69.4141 10.7344C69.8359 10.4948 70.1458 10.1693 70.3438 9.75781C70.4948 9.4401 70.5703 8.97135 70.5703 8.35156V7.83594ZM79.5625 12V10.9531C79.0365 11.776 78.263 12.1875 77.2422 12.1875C76.5807 12.1875 75.9714 12.0052 75.4141 11.6406C74.862 11.276 74.4323 10.7682 74.125 10.1172C73.8229 9.46094 73.6719 8.70833 73.6719 7.85938C73.6719 7.03125 73.8099 6.28125 74.0859 5.60938C74.362 4.93229 74.776 4.41406 75.3281 4.05469C75.8802 3.69531 76.4974 3.51562 77.1797 3.51562C77.6797 3.51562 78.125 3.6224 78.5156 3.83594C78.9062 4.04427 79.224 4.31771 79.4688 4.65625V0.546875H80.8672V12H79.5625ZM75.1172 7.85938C75.1172 8.92188 75.3411 9.71615 75.7891 10.2422C76.237 10.7682 76.7656 11.0312 77.375 11.0312C77.9896 11.0312 78.5104 10.7812 78.9375 10.2812C79.3698 9.77604 79.5859 9.00781 79.5859 7.97656C79.5859 6.84115 79.3672 6.00781 78.9297 5.47656C78.4922 4.94531 77.9531 4.67969 77.3125 4.67969C76.6875 4.67969 76.1641 4.9349 75.7422 5.44531C75.3255 5.95573 75.1172 6.76042 75.1172 7.85938ZM88.7656 9.32812L90.2188 9.50781C89.9896 10.3568 89.5651 11.0156 88.9453 11.4844C88.3255 11.9531 87.5339 12.1875 86.5703 12.1875C85.3568 12.1875 84.3932 11.8151 83.6797 11.0703C82.9714 10.3203 82.6172 9.27083 82.6172 7.92188C82.6172 6.52604 82.9766 5.44271 83.6953 4.67188C84.4141 3.90104 85.3464 3.51562 86.4922 3.51562C87.6016 3.51562 88.5078 3.89323 89.2109 4.64844C89.9141 5.40365 90.2656 6.46615 90.2656 7.83594C90.2656 7.91927 90.263 8.04427 90.2578 8.21094H84.0703C84.1224 9.1224 84.3802 9.82031 84.8438 10.3047C85.3073 10.7891 85.8854 11.0312 86.5781 11.0312C87.0938 11.0312 87.5339 10.8958 87.8984 10.625C88.263 10.3542 88.5521 9.92188 88.7656 9.32812ZM84.1484 7.05469H88.7812C88.7188 6.35677 88.5417 5.83333 88.25 5.48438C87.8021 4.94271 87.2214 4.67188 86.5078 4.67188C85.862 4.67188 85.3177 4.88802 84.875 5.32031C84.4375 5.7526 84.1953 6.33073 84.1484 7.05469ZM91.9922 12V3.70312H93.25V4.86719C93.5104 4.46094 93.8568 4.13542 94.2891 3.89062C94.7214 3.64062 95.2135 3.51562 95.7656 3.51562C96.3802 3.51562 96.8828 3.64323 97.2734 3.89844C97.6693 4.15365 97.9479 4.51042 98.1094 4.96875C98.7656 4 99.6198 3.51562 100.672 3.51562C101.495 3.51562 102.128 3.74479 102.57 4.20312C103.013 4.65625 103.234 5.35677 103.234 6.30469V12H101.836V6.77344C101.836 6.21094 101.789 5.80729 101.695 5.5625C101.607 5.3125 101.443 5.11198 101.203 4.96094C100.964 4.8099 100.682 4.73438 100.359 4.73438C99.776 4.73438 99.2917 4.92969 98.9062 5.32031C98.5208 5.70573 98.3281 6.32552 98.3281 7.17969V12H96.9219V6.60938C96.9219 5.98438 96.8073 5.51562 96.5781 5.20312C96.349 4.89062 95.974 4.73438 95.4531 4.73438C95.0573 4.73438 94.6901 4.83854 94.3516 5.04688C94.0182 5.25521 93.776 5.5599 93.625 5.96094C93.474 6.36198 93.3984 6.9401 93.3984 7.69531V12H91.9922ZM105.258 15.1953L105.102 13.875C105.409 13.9583 105.677 14 105.906 14C106.219 14 106.469 13.9479 106.656 13.8438C106.844 13.7396 106.997 13.5938 107.117 13.4062C107.206 13.2656 107.349 12.9167 107.547 12.3594C107.573 12.2812 107.615 12.1667 107.672 12.0156L104.523 3.70312H106.039L107.766 8.50781C107.99 9.11719 108.19 9.75781 108.367 10.4297C108.529 9.78385 108.721 9.15365 108.945 8.53906L110.719 3.70312H112.125L108.969 12.1406C108.63 13.0521 108.367 13.6797 108.18 14.0234C107.93 14.487 107.643 14.8255 107.32 15.0391C106.997 15.2578 106.612 15.3672 106.164 15.3672C105.893 15.3672 105.591 15.3099 105.258 15.1953Z" fill="#444444"/>
</svg>

<svg width="113" height="16" fill="none" xmlns="http://www.w3.org/2000/svg"><path d="M.281 12V.547h1.516V5.25H7.75V.547h1.516V12H7.75V6.602H1.797V12H.28zm14.43 0V1.898h-3.774V.547h9.079v1.351h-3.79V12h-1.515zm6.82 0V.547h2.282l2.71 8.11c.25.754.433 1.32.547 1.695.13-.417.334-1.03.61-1.836l2.742-7.97h2.039V12H31V2.414L27.672 12h-1.367l-3.313-9.75V12h-1.46zm13.313 0V.547h1.515v10.101H42V12h-7.156zm10.68 0L49.921.547h1.633L56.242 12h-1.726L53.18 8.531h-4.79L47.134 12h-1.61zm3.304-4.703h3.883l-1.195-3.172a31.346 31.346 0 01-.813-2.375 14.587 14.587 0 01-.617 2.188l-1.258 3.359zm13.86 1.664l1.382.18c-.15.953-.539 1.7-1.164 2.242-.62.536-1.383.805-2.289.805-1.135 0-2.05-.37-2.742-1.11-.688-.745-1.031-1.81-1.031-3.195 0-.896.148-1.68.445-2.352.297-.672.747-1.174 1.352-1.508a4.02 4.02 0 011.984-.507c.901 0 1.638.229 2.21.687.574.453.941 1.1 1.102 1.938l-1.367.21c-.13-.557-.362-.976-.695-1.257-.328-.282-.727-.422-1.195-.422-.709 0-1.284.255-1.727.766-.443.505-.664 1.307-.664 2.406 0 1.114.214 1.924.64 2.43.428.505.985.757 1.673.757.552 0 1.013-.169 1.382-.508.37-.338.605-.859.703-1.562zm8 2.016c-.521.442-1.024.755-1.508.937-.48.182-.995.274-1.547.274-.912 0-1.612-.222-2.102-.665-.49-.447-.734-1.018-.734-1.71 0-.407.091-.777.273-1.11.188-.338.43-.61.727-.812a3.47 3.47 0 011.016-.461c.275-.073.692-.144 1.25-.211 1.135-.136 1.97-.297 2.507-.485.006-.192.008-.315.008-.367 0-.573-.133-.976-.398-1.21-.36-.318-.894-.477-1.602-.477-.661 0-1.15.117-1.469.351-.312.23-.544.638-.695 1.227L65.04 6.07c.125-.588.33-1.062.617-1.422.287-.364.7-.643 1.242-.835.542-.198 1.17-.297 1.883-.297.709 0 1.284.083 1.727.25.443.166.768.377.976.632.209.25.355.568.438.954.047.24.07.671.07 1.296v1.875c0 1.308.029 2.136.086 2.485.063.344.182.674.36.992h-1.47a2.981 2.981 0 01-.28-1.023zm-.118-3.141c-.51.208-1.276.385-2.297.531-.578.084-.986.177-1.226.281a1.214 1.214 0 00-.75 1.125c0 .375.14.688.422.938.286.25.703.375 1.25.375.541 0 1.023-.117 1.445-.352.422-.24.732-.565.93-.976.15-.318.226-.787.226-1.406v-.516zM79.563 12v-1.047c-.526.823-1.3 1.235-2.32 1.235a3.278 3.278 0 01-1.829-.547c-.552-.365-.982-.873-1.289-1.524-.302-.656-.453-1.409-.453-2.258 0-.828.138-1.578.414-2.25.276-.677.69-1.195 1.242-1.554.552-.36 1.17-.54 1.852-.54.5 0 .945.107 1.336.32.39.21.708.483.953.821V.546h1.398V12h-1.305zm-4.446-4.14c0 1.062.224 1.856.672 2.382.448.526.977.79 1.586.79.615 0 1.135-.25 1.563-.75.432-.506.648-1.274.648-2.305 0-1.136-.219-1.97-.656-2.5-.438-.532-.977-.797-1.618-.797-.624 0-1.148.255-1.57.765-.416.51-.625 1.315-.625 2.414zm13.649 1.468l1.453.18c-.23.849-.654 1.508-1.274 1.976-.62.47-1.411.704-2.375.704-1.213 0-2.177-.373-2.89-1.118-.709-.75-1.063-1.8-1.063-3.148 0-1.396.36-2.48 1.078-3.25.72-.771 1.651-1.156 2.797-1.156 1.11 0 2.016.377 2.719 1.132.703.756 1.055 1.818 1.055 3.188 0 .083-.003.208-.008.375H84.07c.052.911.31 1.61.774 2.094.463.484 1.041.726 1.734.726.516 0 .956-.135 1.32-.406.365-.27.654-.703.868-1.297zm-4.618-2.273h4.633c-.062-.698-.24-1.222-.531-1.57-.448-.542-1.029-.813-1.742-.813-.646 0-1.19.216-1.633.648-.438.433-.68 1.01-.727 1.735zM91.992 12V3.703h1.258v1.164c.26-.406.607-.732 1.04-.976.431-.25.923-.375 1.476-.375.614 0 1.117.127 1.507.382.396.256.675.612.836 1.07.657-.968 1.51-1.452 2.563-1.452.823 0 1.456.229 1.898.687.443.453.664 1.154.664 2.102V12h-1.398V6.773c0-.562-.047-.966-.141-1.21a1.15 1.15 0 00-.492-.602 1.548 1.548 0 00-.844-.227c-.583 0-1.067.196-1.453.586-.385.386-.578 1.006-.578 1.86V12h-1.406V6.61c0-.626-.115-1.094-.344-1.407-.229-.312-.604-.469-1.125-.469-.396 0-.763.105-1.101.313a1.778 1.778 0 00-.727.914c-.151.401-.227.98-.227 1.734V12h-1.406zm13.266 3.195l-.156-1.32c.307.083.575.125.804.125.313 0 .563-.052.75-.156.188-.104.341-.25.461-.438.089-.14.232-.49.43-1.047.026-.078.068-.192.125-.343l-3.149-8.313h1.516l1.727 4.805c.224.61.424 1.25.601 1.922a18.98 18.98 0 01.578-1.89l1.774-4.837h1.406l-3.156 8.438c-.339.911-.602 1.539-.789 1.882-.25.464-.537.803-.86 1.016-.323.219-.708.328-1.156.328-.271 0-.573-.057-.906-.172z" fill="#444"/></svg>
